X: 7065
T: Chorus, The
R: reel
M: 4/4
K: Dmixolydian
AG|F2DF ABAG|FDFG ~A2dA|F2DF ABcG|ECEF ~G2AG|
F2DF ABAG|FDFG ~A2dA|F2DF ABcG|ECEF ~G2||
AB|c3A BG~G2|Add2 egfe|d2cA BG~G2|AdcA G2Bc|
dBcA BG~G2|Add2 egfe|d2cA BG~G2|AdcA G3||
g|fd~d2 fdgd|ad~d2 a2ag|fd~d2 fdad|cdef g2 ag|
fd~d2 fdgd|ad~d2 a2ef|g2 (3agf gfed|cdef g2||

